public/files/perm/themes/base/nova/img/arrow_down.svg

<svg width="32" height="32" viewBox="0 0 32 32" fill="none" xmlns="http://www.w3.org/2000/svg">
<path d="M21.1667 12L15.9934 17.1734L10.82 12C10.3 11.48 9.46005 11.48 8.94005 12C8.42005 12.52 8.42005 13.36 8.94005 13.88L15.06 20C15.58 20.52 16.42 20.52 16.94 20L23.06 13.88C23.58 13.36 23.58 12.52 23.06 12C22.54 11.4934 21.6867 11.48 21.1667 12Z" fill="#0C2C84"/>
</svg>

<svg fill="none" height="32" viewBox="0 0 32 32" width="32" xmlns="http://www.w3.org/2000/svg"><path d="m21.1667 12-5.1733 5.1734-5.1734-5.1734c-.52-.52-1.35995-.52-1.87995 0s-.52 1.36 0 1.88l6.11995 6.12c.52.52 1.36.52 1.88 0l6.12-6.12c.52-.52.52-1.36 0-1.88-.52-.5066-1.3733-.52-1.8933 0z" fill="#0c2c84"/></svg>
